!!!OTL: Der heimkehrende Braeutigam
!!!OTL-incipit:Es wollt' sich ein Juengling erwerben
!!!ARE: Europa, Mitteleuropa, Deutschland / France, Lothringen, Kr. Forbach,
!!    Oetingen (?)
!!!YOR: 5, S. 144
!!    1937 aufgezeichnet
!!!SCT: Q0102E
!!!TXL: @@DE
!!!YEM: Copyright 1995, estate of Helmut Schaffrath.
**kern	**text
*ICvox	*
*M3/4	*
*k[f#]	*
*G:	*
!LO:TX:a:t=21 Lothringen	!
{4d	Es
=1	=1
4g	wollt'
4d	sich
4g	ein
=2	=2
4b	Jüng-
4d	-ling
4g	er-
=3	=3
(2a	-wer-
4b)	.
=4	=4
2d}	-ben
{8bL	in
8bJ	der
=5	=5
4.a	Ju-
8g	-gend
4f#	ein
=6	=6
4g	jung-
4e	-fri-
4a	-sches
=7	=7
2d}	Blut.
{4d	Der
=8	=8
4cc	Jüng-
4b	-ling
4a	.
=9	=9
4g	muß
4f#	fort
4e	in
=10	=10
(2f#	den
4a)	Krie-
=11	=11
2d}	-ge,
{4g	muß
=12	=12
2e	fort
8eL	in
8eJ	den
=13	=13
4g	blu-
4f#	-ti-
4e	-gen
=14	=14
(2d	Kampf,
4cc	.
=15	=15
2b)}	.
{4cc	muß
=16	=16
2b	fort
8aL	in
8gJ	den
=17	=17
4a	blu-
4b	-ti-
4a	-gen
=18	=18
2g}	Kampf.
==	==
!!!AGN: Ballade, Ehe - Geloebnis, Betrug
!!!ONB: ESAC (Essen Associative Code) Database: BALLADE
!!!AMT: simple triple
!!!AIN: vox
!!!EED: Helmut Schaffrath
!!!EEV: 1.0
!!!source: Deutsche Volkslieder mit ihren Melodien Balladen. Herausgegeben vom Deutschen Volksliedarchiv. Fünfter Teil. Freiburg/Breisgau 1965.
!!!page: 144
!!!ENC: Anna Maria Matuszewska
!!!EEV: 2025/02/28
*-	*-
